24x24/actions/format-text-subscript.svg

<svg xmlns="http://www.w3.org/2000/svg" viewBox="0 0 24 24">
  <defs id="defs3051">
    <style type="text/css" id="current-color-scheme">
      .ColorScheme-Text {
        color:#5d656b;
      }
      </style>
  </defs>
 <path style="fill:currentColor;fill-opacity:1;stroke:none" 
     d="M 9.2167969 4 L 4 18 L 5.6875 18 L 7.3554688 13.570312 L 12.917969 13.570312 L 13.066406 14 L 14.732422 14 L 11.210938 4 L 9.2167969 4 z M 10.232422 5.6113281 L 12.361328 12.285156 L 7.8730469 12.285156 L 10.232422 5.6113281 z M 15 14 L 15 16 L 15 17 L 15 19 L 15 20 L 16 20 L 18 20 C 19.108 20 20 19.108 20 18 C 20 17.18906 19.518735 16.498104 18.828125 16.183594 C 18.934075 15.977744 19 15.74831 19 15.5 C 19 14.669 18.331 14 17.5 14 L 16 14 L 15 14 z M 16 15 L 17.5 15 C 17.777 15 18 15.223 18 15.5 C 18 15.777 17.777 16 17.5 16 L 16 16 L 16 15 z M 16 17 L 17.5 17 L 18 17 C 18.554 17 19 17.446 19 18 C 19 18.554 18.554 19 18 19 L 16 19 L 16 17 z "
     class="ColorScheme-Text"
     />
</svg>

<svg xmlns="http://www.w3.org/2000/svg" viewBox="0 0 24 24"><path style="fill:currentColor;fill-opacity:1;stroke:none;color:#5d656b" d="M9.217 4 4 18h1.688l1.667-4.43h5.563l.148.43h1.666L11.211 4H9.217zm1.015 1.611 2.13 6.674H7.872l2.36-6.674zM15 14v6h3c1.108 0 2-.892 2-2 0-.81-.481-1.502-1.172-1.816.106-.206.172-.436.172-.684 0-.831-.669-1.5-1.5-1.5H15zm1 1h1.5a.499.499 0 1 1 0 1H16v-1zm0 2h2c.554 0 1 .446 1 1s-.446 1-1 1h-2v-2z"/></svg>
